X:1
T:Title
%%score { ( 1 3 4 ) | ( 2 5 ) }
L:1/8
M:3/4
K:Db
V:1 treble nm="Grand Piano"
V:3 treble 
V:4 treble 
V:2 bass 
V:5 bass 
V:1
 z2 z2[Q:1/4=106] F2 | z2 z =A Bc | B4 z2 | z2 z =G AB | A4 z2 | G4 z2 | B4 z2 | G4 z2 | %8
 z2[K:bass] z2 E2 | z2 z =G AB | A4 z2 | z2 z F GA | G4 z2 | F4[K:bass] z2 | E4 z2 | %15
 z2 z[K:treble] C DE | z2 z G AG | z2 z2 F2 | B4 GF | A4 FE | G4 ED | F4 DC | E4 C[K:bass]B, | %23
 D3 C B,=A, | B,6- | B,4 z2 |] %26
V:2
 z6 | D,2 D,2 [D,F,]2 | D,2 D,2 [D,F,]2 | A,,2 C,2 [C,E,]2 | A,,2 C,2 [C,E,]2 | B,,2 E,4 | %6
 B,,2 D,2 [D,F,]2 | B,,2 E,2 [E,G,]2 | B,,2 E,4 | A,,2 C,2 [C,E,]2 | A,,2 C,2 [C,E,]2 | %11
 B,,2 E,2 [E,G,]2 | B,,2 E,2 [E,G,]2 | B,,2 D,2 [D,F,]2 | C,2 E,4 | B,,2 D,2 [D,F,]2 | %16
 B,,2 D,2 [D,F,]2 | B,,2 D,4 | B,,2 z A F,2 | B,,2 z G G,2 | B,,2 z F G,2 | B,,2 z E F,2 | %22
 B,,2 z D G,2 | B,,2 D,2 [E,F,]2 | [B,,D,F,]6- | [B,,D,F,]4 z2 |] %26
V:3
 x6 | B4 z2 | z2 z A GF | A4 z2 | z2 z G FE | z2 z2 F2 | z2 z A GF | z2 z F E=D | E4[K:bass] z2 | %9
 A4 z2 | z2 z G FE | G4 z2 | z2 z F ED | z2[K:bass] z E DC | z2 z2 DC | B,4[K:treble] z2 | F4 z2 | %17
 F4 z2 | x6 | x6 | x6 | x6 | x5[K:bass] x | x6 | x6 | x6 |] %26
V:4
 x6 | z2 F,2 z2 | z2 F,2 z2 | z2 E,2 z2 | z2 E,2 z2 | z2 G,4 | z2 F,2 z2 | z2 G,2 z2 | %8
 z2[K:bass] G,4 | z2 E,2 z2 | z2 E,2 z2 | z2 G,2 z2 | z2 G,2 z2 | z2[K:bass] F,2 z2 | z2 G,4 | %15
 z2 F,2[K:treble] z2 | z2 F,2 z2 | z2 F,4 | x6 | x6 | x6 | x6 | x5[K:bass] x | x6 | x6 | x6 |] %26
V:5
 x6 | x6 | x6 | x6 | x6 | x6 | x6 | x6 | x6 | x6 | x6 | x6 | x6 | x6 | x6 | x6 | x6 | x6 | %18
 z2 D,2 z2 | z2 E,2 z2 | z2 E,2 z2 | z2 D,2 z2 | z2 E,2 z2 | x6 | x6 | x6 |] %26

